icons/slots.svg

<svg
  xmlns="http://www.w3.org/2000/svg"
  viewBox="0 0 500 500"
  width="500"
  height="500"
  fill="#ffffff"
>
  <circle cx="250.71" cy="72.74" r="50.04" />
  <path d="M346.36 237.61s-6.9-63.84-31.05-84.45-64.59-20-64.59-20-40.38-.66-64.58 20-31.06 84.45-31.06 84.45c100.31 25.46 191.28 0 191.28 0zm-76.42-93.54L260 158.39c-8-1.5-14.22-1.31-18.74-.47l-9.75-13.85s18.42-11.33 38.43 0zm-32.55 63l9.7-40.85-.09-.22a47.65 47.65 0 0 1 7.46.28v.1l8.16 40-11.9 35.52z" />
  <path d="M113 296h126.29v48.2h19.6V296H387c22 0 39.9 21.65 39.9 48.25h19.6c0-37.41-26.69-67.85-59.5-67.85H113c-32.81 0-59.5 30.44-59.5 67.85h19.6C73.12 317.6 91 296 113 296z" />
  <path d="M63.32 360.65A58.33 58.33 0 1 0 121.65 419a58.4 58.4 0 0 0-58.33-58.35zm0 97.05a38.73 38.73 0 1 1 38.73-38.7 38.76 38.76 0 0 1-38.73 38.7z" />
  <path d="M250.71 360.65A58.33 58.33 0 1 0 309 419a58.4 58.4 0 0 0-58.29-58.35zm0 97.05a38.73 38.73 0 1 1 38.73-38.7 38.76 38.76 0 0 1-38.73 38.7z" />
  <path d="M436.68 360.65A58.33 58.33 0 1 0 495 419a58.4 58.4 0 0 0-58.32-58.35zm0 97.05A38.73 38.73 0 1 1 475.4 419a38.77 38.77 0 0 1-38.72 38.7z" />
  <circle
    class="cls-1"
    cx="63.32"
    cy="418.98"
    r="26.54"
    transform="rotate(-45 63.318 418.983)"
  />
</svg>

<svg id="slots" xmlns="http://www.w3.org/2000/svg" viewBox="0 0 500 500">
  <defs>
    <style>
      .cls-1 {
        fill: #231f20;
      }
    </style>
  </defs>
  <circle id="head" cx="250.71" cy="72.74" r="50.04"/>
  <path id="body" d="M346.36,237.61s-6.9-63.84-31.05-84.45-64.59-20-64.59-20-40.38-.66-64.58,20-31.06,84.45-31.06,84.45C255.39,263.07,346.36,237.61,346.36,237.61Zm-76.42-93.54L260,158.39c-8-1.5-14.22-1.31-18.74-.47l-9.75-13.85S249.93,132.74,269.94,144.07Zm-32.55,63,9.7-40.85L247,166a47.65,47.65,0,0,1,7.46.28v.1l8.16,40L250.72,241.9Z"/>
  <path id="split-line" d="M113,296H239.29V344.2h19.6V296H387c22,0,39.9,21.65,39.9,48.25h19.6c0-37.41-26.69-67.85-59.5-67.85H113c-32.81,0-59.5,30.44-59.5,67.85h19.6C73.12,317.6,91,296,113,296Z"/>
  <path id="circle-outline3" d="M63.32,360.65A58.33,58.33,0,1,0,121.65,419,58.4,58.4,0,0,0,63.32,360.65Zm0,97.05A38.73,38.73,0,1,1,102.05,419,38.76,38.76,0,0,1,63.32,457.7Z"/>
  <path id="circle-outline2" d="M250.71,360.65A58.33,58.33,0,1,0,309,419,58.4,58.4,0,0,0,250.71,360.65Zm0,97.05A38.73,38.73,0,1,1,289.44,419,38.76,38.76,0,0,1,250.71,457.7Z"/>
  <path id="circle-outline1" d="M436.68,360.65A58.33,58.33,0,1,0,495,419,58.4,58.4,0,0,0,436.68,360.65Zm0,97.05A38.73,38.73,0,1,1,475.4,419,38.77,38.77,0,0,1,436.68,457.7Z"/>
  <circle id="circle-filled" class="cls-1" cx="63.32" cy="418.98" r="26.54" transform="translate(-277.72 167.49) rotate(-45)"/>
</svg>
